X:1
T:Movie Stuff
T:Movie Stuff
T:A Musical Scenario
T:Edward B. Claypoole
T:Copyright 1918, by ArtMusic Inc
T:Copyright 1918, by ArtMusic Inc
T:Copyright 1918, by ArtMusic Inc
T:Copyright 1918, by ArtMusic Inc
T:Copyright 1918, by ArtMusic Inc
C:Edward B. Claypoole
Z:Copyright 1918, by ArtMusic Inc
%%score { ( 1 4 ) | ( 2 3 ) }
L:1/8
Q:1/4=170
M:2/2
K:C
V:1 treble nm="Piano" snm="Pno."
V:4 treble 
V:2 bass 
V:3 bass 
V:1
"^Vivace"!p!"^(Enter gentleman burglar)" x2 |: x4 .E z .A z | %2
 ((!>![A,B,DF]4 [^G,B,E])) z (3(E^F^G | .A) z .c z .e z .a z | !>![ABd=f]4 [^GBe] z2 z | %5
!mf! .A z Bc"_cresc." .B z cd | .c z de .d z ef | .e z!<(! e^d eded!<)! |!>(! e^ded ed e2!>)! | %9
!p! .A, z .C z .E z .A z | ((!>![A,B,DF]4 [^G,B,E])) z (3(E^F^G | .A) z .c z .e z .a z | %12
 !>![ABd=f]4 [^GBe] z2 z | A>Bc>d e>^f^g>!>!a- | a>^g^f>e d>cB>A |!f! !>![^DAc]2 z2 z4 |1 %16
 z2 !>![DE^GB]2 !>![CEA]2!p! x2 :|2 z2 !>![DE^GB]2 !>![CEA]2 z2 |: %18
"^(Steals maiden's heart)"!mf! c4- cd^de | a2 (3(efe d2) ^c2 | d4- d2 !>![Ff]2 | %21
 !>![Aa]4- [Aa]2 z2 | d4- de^e^f | b2 (3^fgf e2 ^d2 | e4- e2 !>![Gg]2 | !>![Bd^gb]8 | %26
!mf! !>!e4 !>!c'4 | !>!b4 !>!a4 | [dfg]2 (3(GA^A B) !>!f2 !>!e- | e8 | !tenuto!e4 !tenuto!g4 | %31
 !tenuto!c4 !tenuto!e4 | !>![CFA] z .a.g .f.e.d.c |1 e2 !>![FGBd]2 !>![EGc]2 z2 :|2 %34
 e2 !>![FGBd]2 !>![EGc]2!p! z2 || x4 .E z .A z | ((!>![A,B,DF]4 [^G,B,E])) z (3(E^F^G | %37
 .A) z .c z .e z .a z | !>![ABd=f]4 [^GBe] z2 z |!mf! .A z Bc"_cresc." .B z cd | .c z de .d z ef | %41
 .e z!<(! e^d eded!<)! |!>(! e^ded ed e2!>)! |!p! .A, z .C z .E z .A z | %44
 ((!>![A,B,DF]4 [^G,B,E])) z (3(E^F^G | .A) z .c z .e z .a z | !>![ABd=f]4 [^GBe] z2 z | %47
!mf! A>Bc>d e>^f^g>!>!a- | a>^g^f>e d>cB>A |!f! !>![^DAc] z z2 z4 | z2 !>![=DE^GB]2 !>![CEA]2 z2 || %51
[K:F]!mf!"^(Wedding Bells)""_TRIO" !>![Aa]2 !>![Aa]2 !>!afgc | f g2 f a2 [Gg]2 | %53
 !>![Ff]2 !>![Ff]2 !>!fcdA | c d2 c f2 [^F^f]2 | [Beg]2 ^f[Beg]- [Beg]f[Beg]f | %56
 [Beg]2 [deb]2 [cea]2 [Beg]2 | [cfa]2!f! !>![fc'f']2 !>![ebe']2 !>![dad']2 | %58
 !>![cgc']2 !>![Bfb]2 !>![Aea]2 !>![Gdg]2 |!mf! [Cc]4 [Ff]3 [Ff] | fcdA c d2 c | [Cc]4 [Gg]3 [Ee] | %62
!<(! [Ff]2 !>![Ff]2 !>![Aa]2 !>![cc']2!<)! |!ff! !>![fa=bf']4 !>![e^gbe']3 !>![=B=b] | %64
 !>![dd']2 !>![c_ec']2 !>![Bdb]2 !>![Gdg]2 | [Ff][^F^f][Gg]!>![_A_a]- [Aa][=F=f] !>![Gg]2 | %66
 !>![Ff]2 z2 !>![fac'f'] z z2 ||!f!"^(Honeymoon out West)" defg [da]f !>![da]2 | %68
 [=Bd^g]e !>![Bdg]2 [A^c=g]e !>![Acg]2 | defg [da]f !>![da]2 | %70
 [=Bd^g]e !>![Bdg]2 [A^c=g]e !>![Acg]2 | A z f2- fAfA | ^G e2 G e4 | z A=B^B ^c [G=f]2 [Fd]- | %74
 [Fd]4- [Fd] z z2 | defg [da]f !>![da]2 | [=Bd^g]e !>![Bdg]2 [A^c=g]e !>![Acg]2 | %77
 defg [da]f !>![da]2 | [=Bd^g]e !>![Bdg]2 [A^c=g]e !>![Acg]2 |!mf! A z f2- fAfA | ^G e2 G e4 | %81
 z A=B^B ^c [G=f]2 [Fd]- | [Fd]2 z2 [=ce_b=c'] z z2 ||!mf! !>![Aa]2 !>![Aa]2 !>!afgc | %84
 f g2 f a2 [Gg]2 | !>![Ff]2 !>![Ff]2 !>!fcdA | c d2 c f2 [^F^f]2 | [Beg]2 ^f[Beg]- [Beg]f[Beg]f | %88
 [Beg]2 [deb]2 [cea]2 [Beg]2 | [cfa]2 !>![fc'f']2 !>![ebe']2 !>![dad']2 | %90
 !>![cgc']2 !>![Bfb]2 !>![Aea]2 !>![Gdg]2 |!f! [Cc]4 [Ff]3 [Ff] | fcdA c d2 c | [Cc]4 [Gg]3 [Ee] | %94
!<(! [Ff]2 !>![Ff]2 !>![Aa]2 !>![cc']2!<)! |!ff! !>![fa=bf']4 !>![e^gbe']3 !>![=B=b] | %96
 !>![dd']2 !>![c_ec']2 !>![Bdb]2 !>![Gdg]2 | [Ff][^F^f][Gg]!>![_A_a]- [Aa][=F=f] !>![Gg]2 | %98
 !>![Ff]2 z2!sfz! !>![fac'f'] z z2 |] %99
V:2
"^R.H.""_L.H." (3E,,^F,,^G,, |: .A,, z .C, z .E, z .A, z | %2
 ((!>![=F,,=F,]4 [E,,E,])) z (3(E,^F,^G, | .A,) z .C z .E z .A z | !>![=F,=F]4 [E,E] z2 z | %5
 .[A,CE] z .[A,CE] z .[A,DF] z .[A,DF] z | .[A,CE] z .[A,CE] z .[A,DF] z .[A,DF] z | %7
 z2 .E, z .E, z .E, z | .E, z .E, z .E, z .E, z | A,, z C, z E, z A, z | %10
 ((!>![=F,,=F,]4 [E,,E,])) z (3(E,^F,^G, | .A,) z .C z .E z .A z | !>![=F,=F]4 [E,E] z2 z | %13
 A,,2 [E,A,C]2 E,,2 [E,A,C]2 | A,,2 [E,A,C]2 E,,2 [E,A,C]2 | %15
 !>![=F,,=F,]2 (3E,F,G, F, z (3E,F,G, |1 F, z !>![E,,E,]2 !>![A,,A,]2 (3E,,F,,^G,, :|2 %17
 F, z !>![E,,E,]2 !>![A,,A,]2 z2 |: [E,,E,]2 [G,A,^C]2 A,,2 [G,A,C]2 | %19
 [E,,E,]2 [G,A,^C]2 A,,2 [G,A,C]2 | [D,,D,]2 [F,A,D]2 A,,2 [F,A,D]2 | %21
 [D,,D,]2 !>![D,D]2 !>![^C,^C]2 !>![=C,=C]2 | [B,,B,]2 [A,B,^D]2 [^D,,^D,]2 [A,B,D]2 | %23
 [F,,F,]2 [G,A,^C]2 B,,2 [G,A,C]2 | [E,,E,]2 [G,B,E]2 B,,2 [G,B,E]2 | %25
 !>![E,E]2 !>![D,D]2 !>![C,C]2 !>![B,,B,]2 | [A,,A,]2 [E,A,C]2 [C,,C,]2 [E,A,C]2 | %27
 [D,,D,]2 [F,A,D]2 [C,,C,]2 [F,A,D]2 | [B,,,B,,]2 [G,B,F]2 G,,2 [G,B,F]2 | C,8 | %30
 !tenuto![C,C]4 !tenuto![B,,B,]4 | !tenuto![A,,A,]4 !tenuto![G,,G,]4 | !>![D,,D,] z z2 z4 |1 %33
 z2 !>![G,,G,]2 !>![C,C]2 !>![^D,,^D,]2 :|2 z2 !>![G,,G,]2 !>![C,C]2"^R.H.""_L.H." (3E,,F,,^G,, || %35
 .A,, z .C, z .E, z .A, z | ((!>![=F,,=F,]4 [E,,E,])) z (3(E,^F,^G, | .A,) z .C z .E z .A z | %38
 !>![=F,=F]4 [E,E] z2 z | .[A,CE] z .[A,CE] z .[A,DF] z .[A,DF] z | %40
 .[A,CE] z .[A,CE] z .[A,DF] z .[A,DF] z | z2 .E, z .E, z .E, z | .E, z .E, z .E, z .E, z | %43
 A,, z C, z E, z A, z | ((!>![=F,,=F,]4 [E,,E,])) z (3(E,^F,^G, | .A,) z .C z .E z .A z | %46
 !>![=F,=F]4 [E,E] z2 z | A,,2 [E,A,C]2 E,,2 [E,A,C]2 | A,,2 [E,A,C]2 E,,2 [E,A,C]2 | %49
 !>![=F,,=F,] z (3E,F,G, F, z (3E,F,G, | F, z !>![E,,E,]2 !>![A,,A,]2 z2 || %51
[K:F] [F,,F,]2 [A,CF]2 [C,,C,]2 [A,CF]2 | [F,,F,]2 [A,CF]2 [C,,C,]2 [A,C]2 | %53
 [F,,F,]2 [F,A,C]2 [C,,C,]2 [F,A,C]2 | [F,,F,]2 [F,A,C]2 [C,,C,]2 [A,C]2 | %55
 [E,,E,]2 [G,B,C]2 [C,,C,]2 [G,B,C]2 | [E,,E,]2 [G,B,C]2 [C,,C,]2 [G,B,C]2 | %57
 [F,,F,]2!ped! !>!A2 !>!G2 !>!F2 | !>!E2 !>!D2 !>!C2 !>!B,2!ped-up! | %59
 [F,,F,]2 [F,A,]2 [C,,C,]2 [F,A,C]2 | [F,,F,]2 [F,A,C]2 [C,,C,]2 [A,C]2 | %61
 [F,,F,]2 [F,A,]2 [C,,C,]2 [G,B,C]2 | [F,,F,]2 [F,A,C]2 !>![F,,F,]2 !>![E,,E,]2 | %63
 !>![D,,D,]4 !>![E,,E,]4 | !>![A,,A,]2 !>![^F,,^F,]2 !>![G,,G,]2 !>![B,,B,]2 | %65
 [_D,F,=B,]6 !>![C,E,_B,]2 | !>![F,A,]2 z2 !arpeggio!!>![F,,C,A,] z z2 || %67
{/^G,,} !>![D,,A,,] z .[D,,A,,] z .[D,,A,,] z .[D,,A,,] z | %68
{/^G,,} !>![D,,A,,] z .[D,,A,,] z .[D,,A,,] z .[D,,A,,] z | %69
{/^G,,} !>![D,,A,,] z .[D,,A,,] z .[D,,A,,] z .[D,,A,,] z | %70
{/^G,,} !>![D,,A,,] z .[D,,A,,] z .[D,,A,,] z .[D,,A,,] z | [D,,D,]2 [F,A,D]2 A,,2 [F,A,D]2 | %72
 =B,,2 [E,^G,D]2 [E,,E,]2 [E,G,D]2 | [^C,,^C,]2 [G,A,E]2 A,,2 [G,A,^C]2 | %74
 [D,,D,]2 .[D,,A,,] z .[D,,A,,] z .[D,,A,,] z | %75
{/^G,,} !>![D,,A,,] z .[D,,A,,] z .[D,,A,,] z .[D,,A,,] z | %76
{/^G,,} !>![D,,A,,] z .[D,,A,,] z .[D,,A,,] z .[D,,A,,] z | %77
{/^G,,} !>![D,,A,,] z .[D,,A,,] z .[D,,A,,] z .[D,,A,,] z | %78
{/^G,,} !>![D,,A,,] z .[D,,A,,] z .[D,,A,,] z .[D,,A,,] z | [D,,D,]2 [F,A,D]2 A,,2 [F,A,D]2 | %80
 =B,,2 [E,^G,D]2 [E,,E,]2 [E,G,D]2 | [^C,,^C,]2 [G,A,E]2 A,,2 [G,A,^C]2 | %82
 [D,F,A,D]2 z2 [=C,,=C,] z z2 || [F,,F,]2 [A,CF]2 [C,,C,]2 [A,CF]2 | %84
 [F,,F,]2 [A,CF]2 [C,,C,]2 [A,C]2 | [F,,F,]2 [F,A,C]2 [C,,C,]2 [F,A,C]2 | %86
 [F,,F,]2 [F,A,C]2 [C,,C,]2 [A,C]2 | [E,,E,]2 [G,B,C]2 [C,,C,]2 [G,B,C]2 | %88
 [E,,E,]2 [G,B,C]2 [C,,C,]2 [G,B,C]2 | [F,,F,]2!ped! !>!A2 !>!G2 !>!F2 | %90
 !>!E2 !>!D2 !>!C2 !>!B,2!ped-up! | [F,,F,]2 [F,A,]2 [C,,C,]2 [F,A,C]2 | %92
 [F,,F,]2 [F,A,C]2 [C,,C,]2 [A,C]2 | [F,,F,]2 [F,A,]2 [C,,C,]2 [G,B,C]2 | %94
 [F,,F,]2 [F,A,C]2 !>![F,,F,]2 !>![E,,E,]2 | !>![D,,D,]4 !>![E,,E,]4 | %96
 !>![A,,A,]2 !>![^F,,^F,]2 !>![G,,G,]2 !>![B,,B,]2 | [_D,F,=B,]6 !>![C,E,_B,]2 | %98
 !>![F,A,]2 z2 !arpeggio!!>![F,,C,A,] z z2 |] %99
V:3
 (3E,^F,^G, |: .A, z .C z x4 | x8 | x8 | x8 | x8 | x8 | x2 (B,2 C2 ^C2 | D2 ^C2 =C2 B,2) | x8 | %10
 x8 | x8 | x8 | x8 | x8 | x8 |1 x6 (3E,F,^G, :|2 x8 |: x8 | x8 | x8 | x8 | x8 | x8 | x8 | x8 | x8 | %27
 x8 | x8 | z2 !>!B,2 !>!A,2 !>!_A,2 | x8 | x8 | x8 |1 x8 :|2 x6 (3E,F,^G, || .A, z .C z x4 | x8 | %37
 x8 | x8 | x8 | x8 | x2 (B,2 C2 ^C2 | D2 ^C2 =C2 B,2) | x8 | x8 | x8 | x8 | x8 | x8 | x8 | x8 || %51
[K:F] x8 | x8 | x8 | x8 | x8 | x8 | x8 | x8 | x8 | x8 | x8 | x8 | x8 | x8 | x8 | x8 || x8 | x8 | %69
 x8 | x8 | x8 | x8 | x8 | x8 | x8 | x8 | x8 | x8 | x8 | x8 | x8 | x8 || x8 | x8 | x8 | x8 | x8 | %88
 x8 | x8 | x8 | x8 | x8 | x8 | x8 | x8 | x8 | x8 | x8 |] %99
V:4
 x2 |: x8 | x8 | x8 | x8 | x8 | x8 | x2 (^G2 A2 ^A2 | B2 ^A2 =A2 ^G2) | x8 | x8 | x8 | x8 | x8 | %14
 x8 | x8 |1 x8 :|2 x8 |: z2 [GA]2 [GA] z z2 | x8 | z2 [FA]4 x2 | z2 [df]4 x2 | z2 [AB]2 [AB] z z2 | %23
 x8 | z2 [GB]4 x2 | x8 | z2 [Ac]2 z2 [cea]2 | z2 [df]2 z2 [cf]2 | x8 | %29
 z2 !>![EB]2 !>![EA]2 !>![E_A]2 | z2 [EGc]2 z2 [GBe]2 | z2 [CEA]2 z2 [EGc]2 | x8 |1 x8 :|2 x8 || %35
 x8 | x8 | x8 | x8 | x8 | x8 | x2 (^G2 A2 ^A2 | B2 ^A2 =A2 ^G2) | x8 | x8 | x8 | x8 | x8 | x8 | %49
 x8 | x8 ||[K:F] x4 (!>!A4- | A4- A2) x2 | x4 (F4- | F4- F2) x2 | x8 | x8 | x8 | x8 | x8 | %60
 F4- F z z2 | x8 | x8 | x8 | x8 | x8 | x8 || x8 | x8 | x8 | x8 | x8 | x8 | x8 | x8 | x8 | x8 | x8 | %78
 x8 | x8 | x8 | x8 | x8 || x4 (A4- | A4- A2) x2 | x4 (F4- | F4- F2) x2 | x8 | x8 | x8 | x8 | x8 | %92
 F4- F z z2 | x8 | x8 | x8 | x8 | x8 | x8 |] %99

